X: 139042
T: TATTHER JACK WELSH
Q: "Irish Jig."
R: Jig.
%R: jig
B: James Kerr "Merry Melodies" v.1 p.39 s.0 #42
Z: 2016 John Chambers <jc:trillian.mit.edu>
N: Beam added to initial pickup notes, to fix the rhythm of repeats.
M: 6/8
L: 1/8
K: D
va/g/ |\
fdd ded | cAB u=c2ud | =cAG GFG | Add dag |\
fdd ded | cAB u=c2ud | =cAG GFG | Add d2 :|
|: uA |\
dfa afd | dfa ua2uf | gag gfg | ecd efg |\
afd ded | cAB u=c2ud | =cAG GFG | Add d2 :|

%%sep 1 1 500
%%sep 1 1 500

